icons/type-icons/icons/text-x-gitignore.svg

<?xml version="1.0" encoding="UTF-8"?>
<svg id="svg11" width="22pt" height="22pt" version="1.1" viewBox="0 0 22 22" xmlns="http://www.w3.org/2000/svg">
 <defs id="defs5">
  <clipPath id="a">
   <path id="path2" d="m0 0.113h91.887v91.887h-91.887z"/>
  </clipPath>
 </defs>
 <g id="g9" transform="matrix(.17413 0 0 .17413 3 2.9803)" clip-path="url(#a)">
  <path id="path7" d="m90.156 41.965-40.12-40.117a5.918 5.918 0 0 0-8.372 0l-8.328 8.332 10.566 10.566a7.03 7.03 0 0 1 7.23 1.684 7.034 7.034 0 0 1 1.669 7.277l10.187 10.184a7.028 7.028 0 0 1 7.278 1.672 7.04 7.04 0 0 1 0 9.957 7.05 7.05 0 0 1-9.965 0 7.044 7.044 0 0 1-1.528-7.66l-9.5-9.497v24.997a7.04 7.04 0 0 1 1.86 11.29 7.04 7.04 0 0 1-9.957 0 7.04 7.04 0 0 1 0-9.958 7.06 7.06 0 0 1 2.304-1.539v-25.227a7.049 7.049 0 0 1-3.82-9.234l-10.418-10.42-27.512 27.505a5.925 5.925 0 0 0 0 8.371l40.122 40.122a5.925 5.925 0 0 0 8.37 0l39.934-39.934a5.925 5.925 0 0 0 0-8.371" fill="#f03c2e"/>
 </g>
</svg>

<?xml version="1.0" encoding="UTF-8" standalone="no"?>
<svg
   width="22pt"
   height="22pt"
   viewBox="0 0 22 22"
   version="1.1"
   id="svg11"
   sodipodi:docname="text-x-gitignore.svg"
   inkscape:version="1.2.2 (b0a8486541, 2022-12-01)"
   xmlns:inkscape="http://www.inkscape.org/namespaces/inkscape"
   xmlns:sodipodi="http://sodipodi.sourceforge.net/DTD/sodipodi-0.dtd"
   xmlns="http://www.w3.org/2000/svg"
   xmlns:svg="http://www.w3.org/2000/svg">
  <sodipodi:namedview
     id="namedview13"
     pagecolor="#ffffff"
     bordercolor="#000000"
     borderopacity="0.25"
     inkscape:showpageshadow="2"
     inkscape:pageopacity="0.0"
     inkscape:pagecheckerboard="0"
     inkscape:deskcolor="#d1d1d1"
     inkscape:document-units="pt"
     showgrid="false"
     inkscape:zoom="6.7418478"
     inkscape:cx="14.461911"
     inkscape:cy="39.67755"
     inkscape:window-width="1920"
     inkscape:window-height="1008"
     inkscape:window-x="0"
     inkscape:window-y="0"
     inkscape:window-maximized="1"
     inkscape:current-layer="svg11" />
  <defs
     id="defs5">
    <clipPath
       id="a">
      <path
         d="M 0,0.113 H 91.887 V 92 H 0 Z m 0,0"
         id="path2" />
    </clipPath>
  </defs>
  <g
     clip-path="url(#a)"
     id="g9"
     transform="matrix(0.17412692,0,0,0.17412751,3,2.9802686)">
    <path
       style="fill:#f03c2e;fill-opacity:1;fill-rule:nonzero;stroke:none"
       d="M 90.156,41.965 50.036,1.848 a 5.918,5.918 0 0 0 -8.372,0 l -8.328,8.332 10.566,10.566 a 7.03,7.03 0 0 1 7.23,1.684 7.034,7.034 0 0 1 1.669,7.277 l 10.187,10.184 a 7.028,7.028 0 0 1 7.278,1.672 7.04,7.04 0 0 1 0,9.957 7.05,7.05 0 0 1 -9.965,0 7.044,7.044 0 0 1 -1.528,-7.66 l -9.5,-9.497 V 59.36 a 7.04,7.04 0 0 1 1.86,11.29 7.04,7.04 0 0 1 -9.957,0 7.04,7.04 0 0 1 0,-9.958 7.06,7.06 0 0 1 2.304,-1.539 V 33.926 A 7.049,7.049 0 0 1 39.66,24.692 L 29.242,14.272 1.73,41.777 a 5.925,5.925 0 0 0 0,8.371 L 41.852,90.27 a 5.925,5.925 0 0 0 8.37,0 L 90.156,50.336 a 5.925,5.925 0 0 0 0,-8.371"
       id="path7" />
  </g>
</svg>
